!!!COM:	Bach, Johann Sebastian
!!!OMV:	O Gott, du frommer Gott
!!!OTL:	O Gott, du frommer Gott
**kern	**fb	**kern	**kern	**kern	**kern	**kern	**kern	**kern	**kern	**kern
*part10	*part10	*part9	*part8	*part7	*part6	*part5	*part4	*part3	*part2	*part1
*staff10	*	*staff9	*staff8	*staff7	*staff6	*staff5	*staff4	*staff3	*staff2	*staff1
*I"Continuo	*	*I"Voice	*I"Voice	*I"Voice	*I"Voice	*I"Viola	*I"Violin	*I"Violin	*I"Oboe d'amore	*I"Oboe d'amore
*I'Cont.	*	*I'V	*I'V	*I'V	*I'V	*I'Vla.	*I'Vln.	*I'Vln.	*I'Ob. d'a.	*I'Ob. d'a.
*clefF4	*	*clefF4	*clefGv2	*clefG2	*clefG2	*clefC3	*clefG2	*clefG2	*clefG2	*clefG2
*Trd0c0	*	*	*	*	*	*	*	*	*	*
*k[f#c#]	*	*k[f#c#]	*k[f#c#]	*k[f#c#]	*k[f#c#]	*k[f#c#]	*k[f#c#]	*k[f#c#]	*k[f#c#]	*k[f#c#]
*M3/4	*	*M3/4	*M3/4	*M3/4	*M3/4	*M3/4	*M3/4	*M3/4	*M3/4	*M3/4
4BB	.	4r	4r	4r	4r	8bL	16ddLL	16ff#LL	4r	4b
.	.	.	.	.	.	.	16cc#	16ee	.	.
.	.	.	.	.	.	8bJ	16dd	16ff#	.	.
.	.	.	.	.	.	.	16eeJJ	16ggJJ	.	.
=2	=2	=2	=2	=2	=2	=2	=2	=2	=2	=2
4C#	7	2.r	2.r	2.r	2.r	4g	4cc#	4ee	2.r	4b
4r	6	.	.	.	.	4r	4r	4r	.	8.a#XL
.	.	.	.	.	.	.	.	.	.	16ggJk
4E	6 #4| 2	.	.	.	.	8f#L	16a#XLL	16cc#LL	.	4ff#
.	.	.	.	.	.	.	16g#X	16b	.	.
.	.	.	.	.	.	8f#J	16a#	16cc#	.	.
.	.	.	.	.	.	.	16bJJ	16ddJJ	.	.
=3	=3	=3	=3	=3	=3	=3	=3	=3	=3	=3
4D	7 #5|	2.r	2.r	2.r	2.r	4f#	4cc#	4f#	2.r	4cc#
4r	6	.	.	.	.	4r	4r	4r	.	8.bL
.	.	.	.	.	.	.	.	.	.	16ff#Jk
4G	6	.	.	.	.	8gL	8bL	16bLL	.	4ee
.	.	.	.	.	.	.	.	16a#X	.	.
.	.	.	.	.	.	8gJ	8bJ	16b	.	.
.	.	.	.	.	.	.	.	16cc#JJ	.	.
=4	=4	=4	=4	=4	=4	=4	=4	=4	=4	=4
4E	7 5	2.r	2.r	2.r	2.r	8gL	8bL	16ddLL	2.r	4dd
.	.	.	.	.	.	.	.	16cc#	.	.
.	.	.	.	.	.	8gJ	8bJ	16dd	.	.
.	.	.	.	.	.	.	.	16ff#JJ	.	.
4r	6	.	.	.	.	8gL	8bL	16eeLL	.	8.cc#L
.	.	.	.	.	.	.	.	16dd	.	.
.	.	.	.	.	.	8gJ	8bJ	16ee	.	.
.	.	.	.	.	.	.	.	16ggJJ	.	16eeJk
4F#	#	.	.	.	.	8f#L	8a#XL	16cc#LL	.	4a#X
.	.	.	.	.	.	.	.	16b	.	.
.	.	.	.	.	.	8f#J	8a#J	16cc#	.	.
.	.	.	.	.	.	.	.	16eeJJ	.	.
=5	=5	=5	=5	=5	=5	=5	=5	=5	=5	=5
!!pagebreak:original
8.BBL	.	2.r	2.r	2.r	2.r	8dL	8f#L	16ddLL	4r	4a#X
.	.	.	.	.	.	.	.	16cc#	.	.
.	.	.	.	.	.	8dJ	8f#J	16dd	.	.
16C#Jk	.	.	.	.	.	.	.	16ff#JJ	.	.
8.DL	6	.	.	.	.	8dL	8f#L	16bLL	4r	4b
.	.	.	.	.	.	.	.	16dd	.	.
.	.	.	.	.	.	8dJ	8f#J	16ff#	.	.
16BBJk	.	.	.	.	.	.	.	16gg#XJJ	.	.
4F#	5	.	.	.	.	8c#L	8f#L	16aaLL	4f#	4cc#
.	.	.	.	.	.	.	.	16gg#	.	.
.	.	.	.	.	.	8c#J	8f#J	16aa	.	.
.	.	.	.	.	.	.	.	16bbJJ	.	.
=6	=6	=6	=6	=6	=6	=6	=6	=6	=6	=6
4C#	#5| 4	2.r	2.r	2.r	2.r	4c#	4g#X	4gg#X	4f#	[2.cc#
4r	#	.	.	.	.	4r	4r	4r	8.e#XL	.
.	.	.	.	.	.	.	.	.	16ddJk	.
4B	6 #4| 2	.	.	.	.	8c#L	16e#XLL	16gg#LL	4cc#	.
.	.	.	.	.	.	.	16d#X	16ff#	.	.
.	.	.	.	.	.	8c#J	16e#	16gg#	.	.
.	.	.	.	.	.	.	16f#JJ	16aaJJ	.	.
=7	=7	=7	=7	=7	=7	=7	=7	=7	=7	=7
4A	#7|	2.r	2.r	2.r	2.r	4c#	8g#XL	4cc#	4g#X	2.cc#_
.	.	.	.	.	.	.	8aJ	.	.	.
4r	6	.	.	.	.	4r	4r	4r	8.f#L	.
.	.	.	.	.	.	.	.	.	16cc#Jk	.
4E#X	6 5	.	.	.	.	8g#XL	8c#L	16g#XLL	4b	.
.	.	.	.	.	.	.	.	16f#	.	.
.	.	.	.	.	.	8g#J	8c#J	16g#	.	.
.	.	.	.	.	.	.	.	16aJJ	.	.
=8	=8	=8	=8	=8	=8	=8	=8	=8	=8	=8
!!pagebreak:original
4F#	.	2.r	2.r	2.r	2.r	8aL	8c#L	16f#LL	4a	4cc#_
.	.	.	.	.	.	.	.	16e#X	.	.
.	.	.	.	.	.	8aJ	8c#J	16f#	.	.
.	.	.	.	.	.	.	.	16g#XJJ	.	.
4c#	#5| #	.	.	.	.	8e#XL	8c#L	16e#LL	8.g#XL	8.cc#L]
.	.	.	.	.	.	.	.	16d#X	.	.
.	.	.	.	.	.	8e#J	8c#J	16e#	.	.
.	.	.	.	.	.	.	.	16f#JJ	16bJk	16ddJk
4C#	7	.	.	.	.	8c#L	8e#XL	16g#LL	4e#X	4b
.	.	.	.	.	.	.	.	16f#	.	.
.	.	.	.	.	.	8c#J	8e#J	16g#	.	.
.	.	.	.	.	.	.	.	16aJJ	.	.
=9	=9	=9	=9	=9	=9	=9	=9	=9	=9	=9
[4F#	#7\ 4	2.r	2.r	2.r	2.r	8c#L	8c#L	16g#XLL	4e#X	4b
.	.	.	.	.	.	.	.	16f#	.	.
.	.	.	.	.	.	8c#J	8c#J	16g#	.	.
.	.	.	.	.	.	.	.	16aJJ	.	.
8.F#L]	8 3	.	.	.	.	4A	4c#	[4f#	[2f#	[2a
16AJk	.	.	.	.	.	.	.	.	.	.
4cn	6 4 3	.	.	.	.	4r	4r	16f#LL]	.	.
.	.	.	.	.	.	.	.	16gn	.	.
.	.	.	.	.	.	.	.	16a	.	.
.	.	.	.	.	.	.	.	16bJJ	.	.
=10	=10	=10	=10	=10	=10	=10	=10	=10	=10	=10
4E	.	2.r	2.r	2.r	2.r	8r	8r	16ccnLL	4f#_	4a_
.	.	.	.	.	.	.	.	16b	.	.
.	.	.	.	.	.	8a	8f#	16cc	.	.
.	.	.	.	.	.	.	.	16ff#JJ	.	.
4D#X	6 5	.	.	.	.	8f#L	8f#L	16bLL	8.f#L]	8.aL]
.	.	.	.	.	.	.	.	16a	.	.
.	.	.	.	.	.	8f#J	8f#J	16b	.	.
.	.	.	.	.	.	.	.	16ff#JJ	16eeJk	16ggJk
4BB	#r7	.	.	.	.	8d#XL	8f#L	16aLL	4dd#X	4ff#
.	.	.	.	.	.	.	.	16g	.	.
.	.	.	.	.	.	8d#J	8f#J	16a	.	.
.	.	.	.	.	.	.	.	16ff#JJ	.	.
=11	=11	=11	=11	=11	=11	=11	=11	=11	=11	=11
!!pagebreak:original
[4E	6 4	2.r	2.r	2.r	2.r	8d#XL	8f#L	16bLL	4f#	4a
.	.	.	.	.	.	.	.	16a	.	.
.	.	.	.	.	.	16eL	16eL	16g	.	.
.	.	.	.	.	.	16f#JJ	16d#XJJ	16f#JJ	.	.
8.EL]	8 3	.	.	.	.	4B	4e	[4g	[2e	[2g
16GJk	.	.	.	.	.	.	.	.	.	.
4B	6 4 3	.	.	.	.	4r	4r	16gLL]	.	.
.	.	.	.	.	.	.	.	16f#	.	.
.	.	.	.	.	.	.	.	16g	.	.
.	.	.	.	.	.	.	.	16aJJ	.	.
=12	=12	=12	=12	=12	=12	=12	=12	=12	=12	=12
4D	6 4 2	2.r	2.r	2.r	2.r	8r	8r	16bLL	4e_	4g_
.	.	.	.	.	.	.	.	16a	.	.
.	.	.	.	.	.	8g	8e	16b	.	.
.	.	.	.	.	.	.	.	16eeJJ	.	.
4C#	6 5	.	.	.	.	8eL	8eL	16aLL	8.eL]	8.gL]
.	.	.	.	.	.	.	.	16g	.	.
.	.	.	.	.	.	8eJ	8eJ	16a	.	.
.	.	.	.	.	.	.	.	16eeJJ	16ddJk	16ff#Jk
4AA	7	.	.	.	.	8c#L	8eL	16gLL	4cc#	4ee
.	.	.	.	.	.	.	.	16f#	.	.
.	.	.	.	.	.	8c#J	8eJ	16g	.	.
.	.	.	.	.	.	.	.	16eeJJ	.	.
=13	=13	=13	=13	=13	=13	=13	=13	=13	=13	=13
[4D	9 4	2.r	2.r	2.r	2.r	8c#L	8eL	16aLL	4e	4g
.	.	.	.	.	.	.	.	16g	.	.
.	.	.	.	.	.	16dL	16dL	16f#	.	.
.	.	.	.	.	.	16eJJ	16c#JJ	16eJJ	.	.
8.DL]	8 3	.	.	.	.	4A	4d	[4f#	4d	4f#
16F#Jk	.	.	.	.	.	.	.	.	.	.
8.BL	5	.	.	.	.	4r	4r	16f#LL]	4dd	4ff#
.	.	.	.	.	.	.	.	16f#	.	.
.	.	.	.	.	.	.	.	16g	.	.
16AJk	.	.	.	.	.	.	.	16aJJ	.	.
=14	=14	=14	=14	=14	=14	=14	=14	=14	=14	=14
!!pagebreak:original
8.GL	7 5	2.r	2.r	2.r	2.r	8r	8r	16bLL	4dd	4ff#
.	.	.	.	.	.	.	.	16a#X	.	.
.	.	.	.	.	.	8B	8d	16b	.	.
16F#Jk	.	.	.	.	.	.	.	16ddJJ	.	.
4.G	6 4 3	.	.	.	.	8c#L	8eL	16gLL	8.cc#L	8.eeL
.	.	.	.	.	.	.	.	16f#	.	.
.	.	.	.	.	.	8c#J	8eJ	16g	.	.
.	.	.	.	.	.	.	.	16bJJ	16eeJk	16ggJk
.	.	.	.	.	.	8eL	8gL	16eLL	4g	4b
.	.	.	.	.	.	.	.	16d#X	.	.
8F#	6 4	.	.	.	.	8eJ	8gJ	16e	.	.
.	.	.	.	.	.	.	.	16gJJ	.	.
=15	=15	=15	=15	=15	=15	=15	=15	=15	=15	=15
8.EL	6 5	2.r	2.r	2.r	2.r	8r	8r	[4c#	4g	4b
.	.	.	.	.	.	8e	8g	.	.	.
16DJk	.	.	.	.	.	.	.	.	.	.
4.E	6 #4| 2	.	.	.	.	8A#XL	8c#L	16c#LL]	8.f#L	8.a#XL
.	.	.	.	.	.	.	.	16d	.	.
.	.	.	.	.	.	8A#J	8c#J	16e	.	.
.	.	.	.	.	.	.	.	16gJJ	16a#XJk	16cc#Jk
.	.	.	.	.	.	8c#L	8eL	16a#XLL	4e	4g
.	.	.	.	.	.	.	.	16b	.	.
8C#	#6\ 5	.	.	.	.	8c#J	8eJ	16cc#	.	.
.	.	.	.	.	.	.	.	16eeJJ	.	.
=16	=16	=16	=16	=16	=16	=16	=16	=16	=16	=16
8.DL	#5| 9 3	2.r	2.r	2.r	2.r	8r	8r	[4aa#X	4e	4g
.	.	.	.	.	.	8g	8c#	.	.	.
16EJk	.	.	.	.	.	.	.	.	.	.
4F#	6 4	.	.	.	.	8dL	8dL	16aa#LL]	8.dL	8.f#L
.	.	.	.	.	.	.	.	16bb	.	.
.	.	.	.	.	.	8BJ	8dJ	16cc#	.	.
.	.	.	.	.	.	.	.	16bJJ	16f#Jk	16ddJk
4FF#	5 #	.	.	.	.	8c#L	8f#L	16a#XLL	8.eL	8.cc#L
.	.	.	.	.	.	.	.	16gg	.	.
.	.	.	.	.	.	8c#J	8f#J	16ff#	.	.
.	.	.	.	.	.	.	.	16eeJJ	16c#Jk	16a#XJk
=17	=17	=17	=17	=17	=17	=17	=17	=17	=17	=17
!!pagebreak:original
4BB	.	4r	4r	4r	4r	8BL	8f#L	16ddLL	4d	4b
.	.	.	.	.	.	.	.	16ff#	.	.
.	.	.	.	.	.	8c#J	8eJ	16b	.	.
.	.	.	.	.	.	.	.	16a#XJJ	.	.
4r	.	4r	4r	4r	4r	8dL	8f#L	16bLL	2r	2r
.	.	.	.	.	.	.	.	16g	.	.
.	.	.	.	.	.	8eJ	8a#XJ	16f#	.	.
.	.	.	.	.	.	.	.	16eJJ	.	.
4B	.	4B	4d	4f#	4b	4f#	4b	16dLL	.	.
.	.	.	.	.	.	.	.	16c#	.	.
.	.	.	.	.	.	.	.	16d	.	.
.	.	.	.	.	.	.	.	16eJJ	.	.
=18	=18	=18	=18	=18	=18	=18	=18	=18	=18	=18
4c#	9 7 4	2c#	4d	4f#	4b	2.r	2.r	16c#LL	2.r	2.r
.	.	.	.	.	.	.	.	16B	.	.
.	.	.	.	.	.	.	.	16c#	.	.
.	.	.	.	.	.	.	.	16dJJ	.	.
4r	8 #6\ 3	.	4c#	4e	8a#XL	.	.	16eLL	.	.
.	.	.	.	.	.	.	.	16d	.	.
.	.	.	.	.	8g#XJ	.	.	16e	.	.
.	.	.	.	.	.	.	.	16ddJJ	.	.
4C#	#6\ nr5	4C#	4e	4g	4a#	.	.	16cc#LL	.	.
.	.	.	.	.	.	.	.	16b	.	.
.	.	.	.	.	.	.	.	16a#X	.	.
.	.	.	.	.	.	.	.	16cc#JJ	.	.
=19	=19	=19	=19	=19	=19	=19	=19	=19	=19	=19
4D	6 4 9	2D	4e	4g	2b	2.r	2.r	16eLL	2.r	2.r
.	.	.	.	.	.	.	.	16d	.	.
.	.	.	.	.	.	.	.	16e	.	.
.	.	.	.	.	.	.	.	16cc#JJ	.	.
4r	3 8	.	8dL	4f#	.	.	.	16bLL	.	.
.	.	.	.	.	.	.	.	16a	.	.
.	.	.	8c#J	.	.	.	.	16g	.	.
.	.	.	.	.	.	.	.	16f#JJ	.	.
4EE	6 5	4E	8BL	4g	4cc#	.	.	16eLL	.	.
.	.	.	.	.	.	.	.	16d	.	.
.	.	.	8A#XJ	.	.	.	.	16c#	.	.
.	.	.	.	.	.	.	.	16BJJ	.	.
=20	=20	=20	=20	=20	=20	=20	=20	=20	=20	=20
!!pagebreak:original
4FF#	6 4	4F#	2B	4f#	4dd	2.r	2.r	16f#LL	2.r	2.r
.	.	.	.	.	.	.	.	16e	.	.
.	.	.	.	.	.	.	.	16f#	.	.
.	.	.	.	.	.	.	.	16a#XJJ	.	.
4r	.	4E	.	4g	4ee	.	.	16bLL	.	.
.	.	.	.	.	.	.	.	16a#	.	.
.	.	.	.	.	.	.	.	16b	.	.
.	.	.	.	.	.	.	.	16ggJJ	.	.
4F#	5 #	4F#	4A#X	4e	4cc#	.	.	16ff#LL	.	.
.	.	.	.	.	.	.	.	16ee	.	.
.	.	.	.	.	.	.	.	16dd	.	.
.	.	.	.	.	.	.	.	16cc#JJ	.	.
=21	=21	=21	=21	=21	=21	=21	=21	=21	=21	=21
4B	.	2BB	2B	2d	2b	8r	8r	16ddLL	4r	4r
.	.	.	.	.	.	.	.	16ee	.	.
.	.	.	.	.	.	8B	8f#	16ff#	.	.
.	.	.	.	.	.	.	.	16bbJJ	.	.
4r	.	.	.	.	.	8c#L	8f#L	16aa#XLL	4r	4r
.	.	.	.	.	.	.	.	16gg#X	.	.
.	.	.	.	.	.	8A#XJ	8f#J	16ff#	.	.
.	.	.	.	.	.	.	.	16eeJJ	.	.
4BB	.	4r	4r	4r	4r	8BL	8f#L	16ddLL	4f#	4b
.	.	.	.	.	.	.	.	16cc#	.	.
.	.	.	.	.	.	8BJ	8f#J	16dd	.	.
.	.	.	.	.	.	.	.	16eeJJ	.	.
=22	=22	=22	=22	=22	=22	=22	=22	=22	=22	=22
4F#	4	2.r	2.r	2.r	2.r	4c#	4f#	4cc#	[2.f#	4b
4r	#	.	.	.	.	4r	4r	4r	.	8.a#XL
.	.	.	.	.	.	.	.	.	.	16ggJk
4E	6 #4| 2	.	.	.	.	8A#XL	8c#L	16cc#LL	.	4ff#
.	.	.	.	.	.	.	.	16b	.	.
.	.	.	.	.	.	8A#J	8c#J	16cc#	.	.
.	.	.	.	.	.	.	.	16ddJJ	.	.
=23	=23	=23	=23	=23	=23	=23	=23	=23	=23	=23
!!pagebreak:original
4D	7 #5|	2.r	2.r	2.r	2.r	8A#XL	4d	4f#	2.f#_	4cc#
.	.	.	.	.	.	8BJ	.	.	.	.
4r	6	.	.	.	.	4r	4r	4r	.	8.bL
.	.	.	.	.	.	.	.	.	.	16ff#Jk
4AA#X	6 5	.	.	.	.	8c#L	8f#L	16c#LL	.	4ee
.	.	.	.	.	.	.	.	16B	.	.
.	.	.	.	.	.	8c#J	8f#J	16c#	.	.
.	.	.	.	.	.	.	.	16dJJ	.	.
=24	=24	=24	=24	=24	=24	=24	=24	=24	=24	=24
4BB	.	2.r	2.r	2.r	2.r	8dL	8f#L	16BLL	4f#_	4dd
.	.	.	.	.	.	.	.	16A#X	.	.
.	.	.	.	.	.	8dJ	8f#J	16B	.	.
.	.	.	.	.	.	.	.	16c#JJ	.	.
4F#	5 #	.	.	.	.	8A#XL	8f#L	16A#LL	8.f#L]	8.cc#L
.	.	.	.	.	.	.	.	16G#X	.	.
.	6	.	.	.	.	8A#J	8f#J	16A#	.	.
.	.	.	.	.	.	.	.	16BJJ	16gJk	16eeJk
4FF#	7	.	.	.	.	8F#L	8a#XL	16c#LL	4e	4a#X
.	.	.	.	.	.	.	.	16B	.	.
.	.	.	.	.	.	8F#J	8a#J	16c#	.	.
.	.	.	.	.	.	.	.	16dJJ	.	.
=25	=25	=25	=25	=25	=25	=25	=25	=25	=25	=25
4BB	#7| 5 4	4r	4r	4r	4r	4F#	4f#	16c#LL	4e	4a#X
.	.	.	.	.	.	.	.	16B	.	.
.	.	.	.	.	.	.	.	16c#	.	.
.	.	.	.	.	.	.	.	16dJJ	.	.
4r	8 3	4r	4r	4r	4r	4r	4r	16BLL	4d	4b
.	.	.	.	.	.	.	.	16c#	.	.
.	.	.	.	.	.	.	.	16d	.	.
.	.	.	.	.	.	.	.	16f#JJ	.	.
4B	.	4B	4d	4f#	4b	4r	4r	16bLL	4r	4r
.	.	.	.	.	.	.	.	16cc#	.	.
.	.	.	.	.	.	.	.	16dd	.	.
.	.	.	.	.	.	.	.	16ff#JJ	.	.
=26	=26	=26	=26	=26	=26	=26	=26	=26	=26	=26
!!pagebreak:original
4E#X	6 5	4E#X	2c#	4g#X	2cc#	2.r	2.r	16bbLL	2.r	2.r
.	.	.	.	.	.	.	.	16dd	.	.
.	.	.	.	.	.	.	.	16cc#	.	.
.	.	.	.	.	.	.	.	16bJJ	.	.
8.r	.	4F#	.	4a	.	.	.	16aLL	.	.
.	.	.	.	.	.	.	.	16g#X	.	.
.	.	.	.	.	.	.	.	16a	.	.
16F#	n	.	.	.	.	.	.	16cc#JJ	.	.
4En	6 #4| 2	4En	4f#	4a#X	4cc#	.	.	16ff#LL	.	.
.	.	.	.	.	.	.	.	16ee	.	.
.	.	.	.	.	.	.	.	16dd	.	.
.	.	.	.	.	.	.	.	16cc#JJ	.	.
=27	=27	=27	=27	=27	=27	=27	=27	=27	=27	=27
4D	6	4D	4f#	4b	2ff#	2.r	2.r	16bLL	2.r	2.r
.	.	.	.	.	.	.	.	16a	.	.
.	.	.	.	.	.	.	.	16g	.	.
.	.	.	.	.	.	.	.	16f#JJ	.	.
8.r	.	4d	4B	4g#X	.	.	.	16g#XLL	.	.
.	.	.	.	.	.	.	.	16a	.	.
.	.	.	.	.	.	.	.	16b	.	.
16d	6 #4| 2	.	.	.	.	.	.	16eeJJ	.	.
4c#	#6\	4c#	4c#	4a#X	4ee	.	.	16ggLL	.	.
.	.	.	.	.	.	.	.	16ff#	.	.
.	.	.	.	.	.	.	.	16ee	.	.
.	.	.	.	.	.	.	.	16ddJJ	.	.
=28	=28	=28	=28	=28	=28	=28	=28	=28	=28	=28
4B	4 #7| 5	4.B	4F#	4a#X	4ee	2.r	2.r	16cc#LL	2.r	2.r
.	.	.	.	.	.	.	.	16b	.	.
.	.	.	.	.	.	.	.	16a#X	.	.
.	.	.	.	.	.	.	.	16cc#JJ	.	.
8.r	8 3	.	4f#	4b	8ddL	.	.	16ddLL	.	.
.	.	.	.	.	.	.	.	16cc#	.	.
.	.	8A#X	.	.	8cc#J	.	.	16b	.	.
16A#X	.	.	.	.	.	.	.	16anJJ	.	.
4B	3 6 #4|	4B	4e#X	4g#X	4dd	.	.	16g#XLL	.	.
.	.	.	.	.	.	.	.	16f#	.	.
.	.	.	.	.	.	.	.	16fn	.	.
.	.	.	.	.	.	.	.	16g#JJ	.	.
=29	=29	=29	=29	=29	=29	=29	=29	=29	=29	=29
!!pagebreak:original
[4F#	#	2F#	2f#	2a#X	2cc#	2.r	2.r	16cc#LL	4r	4r
.	.	.	.	.	.	.	.	16b	.	.
.	.	.	.	.	.	.	.	16a#X	.	.
.	.	.	.	.	.	.	.	16g#XJJ	.	.
8.F#L]	.	.	.	.	.	.	.	[4f#	4r	4r
16AJk	.	.	.	.	.	.	.	.	.	.
4cn	.	4r	4r	4r	4r	.	.	16f#LL]	4f#	4a
.	.	.	.	.	.	.	.	16gn	.	.
.	.	.	.	.	.	.	.	16an	.	.
.	.	.	.	.	.	.	.	16bJJ	.	.
=30	=30	=30	=30	=30	=30	=30	=30	=30	=30	=30
4E	.	2.r	2.r	2.r	2.r	8r	8r	16ccnLL	[4f#	[4a
.	.	.	.	.	.	.	.	16b	.	.
.	.	.	.	.	.	8a	8f#	16cc	.	.
.	.	.	.	.	.	.	.	16ff#JJ	.	.
4D#X	5 6	.	.	.	.	8f#L	8f#L	16bLL	8.f#L]	8.aL]
.	.	.	.	.	.	.	.	16a	.	.
.	.	.	.	.	.	8f#J	8f#J	16b	.	.
.	.	.	.	.	.	.	.	16ff#JJ	16eeJk	16ggJk
4BB	7 #	.	.	.	.	8d#XL	8f#L	16aLL	4dd#X	4ff#
.	.	.	.	.	.	.	.	16g	.	.
.	.	.	.	.	.	8d#J	8f#J	16a	.	.
.	.	.	.	.	.	.	.	16ff#JJ	.	.
=31	=31	=31	=31	=31	=31	=31	=31	=31	=31	=31
[4E	9 4	2.r	2.r	2.r	2.r	8d#XL	8f#L	16bLL	4f#	4a
.	.	.	.	.	.	.	.	16a	.	.
.	.	.	.	.	.	16eL	16eL	16g	.	.
.	.	.	.	.	.	16f#JJ	16d#XJJ	16f#JJ	.	.
8.EL]	8 3	.	.	.	.	4B	4e	[4g	[2e	[2g
16GJk	.	.	.	.	.	.	.	.	.	.
4B	6	.	.	.	.	4r	4r	16gLL]	.	.
.	.	.	.	.	.	.	.	16f#	.	.
.	.	.	.	.	.	.	.	16g	.	.
.	.	.	.	.	.	.	.	16aJJ	.	.
=32	=32	=32	=32	=32	=32	=32	=32	=32	=32	=32
!!pagebreak:original
4D	6 4 2	2.r	2.r	2.r	2.r	8r	8r	16bLL	4e_	4g_
.	.	.	.	.	.	.	.	16a	.	.
.	.	.	.	.	.	8g	8e	16b	.	.
.	.	.	.	.	.	.	.	16eeJJ	.	.
4C#	6 5	.	.	.	.	8eL	8eL	16aLL	8.eL]	8.gL]
.	.	.	.	.	.	.	.	16g	.	.
.	.	.	.	.	.	8eJ	8eJ	16a	.	.
.	.	.	.	.	.	.	.	16eeJJ	16ddJk	16ff#Jk
4AA	7	.	.	.	.	8c#L	8eL	16gLL	4cc#	4ee
.	.	.	.	.	.	.	.	16f#	.	.
.	.	.	.	.	.	8c#J	8eJ	16g	.	.
.	.	.	.	.	.	.	.	16eeJJ	.	.
=33	=33	=33	=33	=33	=33	=33	=33	=33	=33	=33
[4D	6 4	2.r	2.r	2.r	2.r	8c#L	8eL	16aLL	4e	4g
.	.	.	.	.	.	.	.	16g	.	.
.	.	.	.	.	.	16dL	16dL	16f#	.	.
.	.	.	.	.	.	16eJJ	16c#JJ	16eJJ	.	.
8.DL]	8 3	.	.	.	.	4A	4d	[4f#	4d	4f#
16F#Jk	.	.	.	.	.	.	.	.	.	.
8.BL	5	.	.	.	.	4r	4r	16f#LL]	4dd	4ff#
.	.	.	.	.	.	.	.	16f#	.	.
.	.	.	.	.	.	.	.	16g	.	.
16AJk	.	.	.	.	.	.	.	16aJJ	.	.
=34	=34	=34	=34	=34	=34	=34	=34	=34	=34	=34
8.GL	7 5	2.r	2.r	2.r	2.r	8r	8r	16bLL	4dd	4ff#
.	.	.	.	.	.	.	.	16a#X	.	.
.	.	.	.	.	.	8B	8d	16b	.	.
16F#Jk	.	.	.	.	.	.	.	16ddJJ	.	.
4.G	6 4 3	.	.	.	.	8c#L	8eL	16gLL	8.cc#L	8.eeL
.	.	.	.	.	.	.	.	16f#	.	.
.	.	.	.	.	.	8c#J	8eJ	16g	.	.
.	.	.	.	.	.	.	.	16bJJ	16eeJk	16ggJk
.	.	.	.	.	.	8eL	8gL	16eLL	4g	4b
.	.	.	.	.	.	.	.	16d#X	.	.
8F#	6 4	.	.	.	.	8eJ	8gJ	16e	.	.
.	.	.	.	.	.	.	.	16gJJ	.	.
=35	=35	=35	=35	=35	=35	=35	=35	=35	=35	=35
!!pagebreak:original
8.EL	6 5	2.r	2.r	2.r	2.r	8r	8r	[4c#	4g	4b
.	.	.	.	.	.	8e	8g	.	.	.
16DJk	.	.	.	.	.	.	.	.	.	.
4.E	6 #4| 5	.	.	.	.	8A#XL	8c#L	16c#LL]	8.f#L	8.a#XL
.	.	.	.	.	.	.	.	16d	.	.
.	.	.	.	.	.	8A#J	8c#J	16e	.	.
.	.	.	.	.	.	.	.	16gJJ	16cc#Jk	16eeJk
.	.	.	.	.	.	8c#L	8eL	16a#XLL	4e	4g
.	.	.	.	.	.	.	.	16b	.	.
8C#	#6\ 5	.	.	.	.	8c#J	8eJ	16cc#	.	.
.	.	.	.	.	.	.	.	16eeJJ	.	.
=36	=36	=36	=36	=36	=36	=36	=36	=36	=36	=36
8.DL	9 #5| 3	2.r	2.r	2.r	2.r	8r	8r	[4aa#X	4e	4g
.	.	.	.	.	.	8g	8c#	.	.	.
16EJk	.	.	.	.	.	.	.	.	.	.
4F#	6 4	.	.	.	.	8dL	8dL	16aa#LL]	8.dL	8.f#L
.	.	.	.	.	.	.	.	16bb	.	.
.	.	.	.	.	.	8BJ	8dJ	16cc#	.	.
.	.	.	.	.	.	.	.	16bJJ	16f#Jk	16ddJk
4FF#	5 #	.	.	.	.	8c#L	8f#L	16a#XLL	8.eL	8.cc#L
.	.	.	.	.	.	.	.	16gg	.	.
.	.	.	.	.	.	8c#J	8f#J	16ff#	.	.
.	.	.	.	.	.	.	.	16eeJJ	16c#Jk	16a#XJk
=37	=37	=37	=37	=37	=37	=37	=37	=37	=37	=37
4BB	.	4r	4r	4r	4r	8BL	8f#L	16ddLL	4d	4b
.	.	.	.	.	.	.	.	16ff#	.	.
.	.	.	.	.	.	8c#J	8eJ	16b	.	.
.	.	.	.	.	.	.	.	16a#XJJ	.	.
4r	.	4r	4r	4r	4r	8dL	8f#L	16bLL	4r	4r
.	.	.	.	.	.	.	.	16g	.	.
.	.	.	.	.	.	8eJ	8a#XJ	16f#	.	.
.	.	.	.	.	.	.	.	16eJJ	.	.
4B	.	4B	4d	4f#	4b	4f#	4b	16dLL	4r	4r
.	.	.	.	.	.	.	.	16c#	.	.
.	.	.	.	.	.	.	.	16d	.	.
.	.	.	.	.	.	.	.	16eJJ	.	.
=38	=38	=38	=38	=38	=38	=38	=38	=38	=38	=38
!!pagebreak:original
4c#	9 7 4	2c#	4d	4f#	4b	2.r	2.r	16c#LL	2.r	2.r
.	.	.	.	.	.	.	.	16B	.	.
.	.	.	.	.	.	.	.	16c#	.	.
.	.	.	.	.	.	.	.	16dJJ	.	.
4r	8 #6\ 3	.	4c#	4e	4a#X	.	.	16eLL	.	.
.	.	.	.	.	.	.	.	16d	.	.
.	.	.	.	.	.	.	.	16e	.	.
.	.	.	.	.	.	.	.	16ddJJ	.	.
4C#	#6\ nr5	4C#	4e	4g	4a#	.	.	16cc#LL	.	.
.	.	.	.	.	.	.	.	16b	.	.
.	.	.	.	.	.	.	.	16a#X	.	.
.	.	.	.	.	.	.	.	16cc#JJ	.	.
=39	=39	=39	=39	=39	=39	=39	=39	=39	=39	=39
4D	#5| 4 9	2D	4e	4gn	4a#X	2.r	2.r	16eLL	2.r	2.r
.	.	.	.	.	.	.	.	16d	.	.
.	.	.	.	.	.	.	.	16e	.	.
.	.	.	.	.	.	.	.	16cc#JJ	.	.
4r	3 8	.	8dL	4f#	4b	.	.	16bLL	.	.
.	.	.	.	.	.	.	.	16a	.	.
.	.	.	8c#J	.	.	.	.	16g	.	.
.	.	.	.	.	.	.	.	16f#JJ	.	.
4EE	6 5	4E	8BL	4g	4cc#	.	.	16eLL	.	.
.	.	.	.	.	.	.	.	16d	.	.
.	.	.	8A#XJ	.	.	.	.	16c#	.	.
.	.	.	.	.	.	.	.	16BJJ	.	.
=40	=40	=40	=40	=40	=40	=40	=40	=40	=40	=40
4FF#	6 4	4F#	2B	4f#	4dd	2.r	2.r	16f#LL	2.r	2.r
.	.	.	.	.	.	.	.	16e	.	.
.	.	.	.	.	.	.	.	16f#	.	.
.	.	.	.	.	.	.	.	16a#XJJ	.	.
4r	.	4E	.	4g	4ee	.	.	16bLL	.	.
.	.	.	.	.	.	.	.	16a#	.	.
.	.	.	.	.	.	.	.	16b	.	.
.	.	.	.	.	.	.	.	16ggJJ	.	.
4F#	5 #	4F#	4A#X	4e	4cc#	.	.	16ff#LL	.	.
.	.	.	.	.	.	.	.	16ee	.	.
.	.	.	.	.	.	.	.	16dd	.	.
.	.	.	.	.	.	.	.	16cc#JJ	.	.
=41	=41	=41	=41	=41	=41	=41	=41	=41	=41	=41
!!pagebreak:original
4B	.	2BB	2B	2d	2b	8r	8r	16ddLL	4r	4r
.	.	.	.	.	.	.	.	16ee	.	.
.	.	.	.	.	.	8B	8f#	16ff#	.	.
.	.	.	.	.	.	.	.	16bbJJ	.	.
4r	.	.	.	.	.	8c#L	8f#L	16aa#XLL	4r	4r
.	.	.	.	.	.	.	.	16gg#X	.	.
.	.	.	.	.	.	8A#XJ	8f#J	16ff#	.	.
.	.	.	.	.	.	.	.	16eeJJ	.	.
4BB	.	4r	4r	4r	4r	8BL	8f#L	16ddLL	4b	4ff#
.	.	.	.	.	.	.	.	16cc#	.	.
.	.	.	.	.	.	8BJ	8f#J	16dd	.	.
.	.	.	.	.	.	.	.	16eeJJ	.	.
=42	=42	=42	=42	=42	=42	=42	=42	=42	=42	=42
4F#	4	2.r	2.r	2.r	2.r	4c#	4f#	4cc#	4b	[2.ff#
4r	#	.	.	.	.	4r	4r	4r	8.a#XL	.
.	.	.	.	.	.	.	.	.	16ggJk	.
4E	6 #4| 2	.	.	.	.	8A#XL	8c#L	16cc#LL	4ff#	.
.	.	.	.	.	.	.	.	16b	.	.
.	.	.	.	.	.	8A#J	8c#J	16cc#	.	.
.	.	.	.	.	.	.	.	16ddJJ	.	.
=43	=43	=43	=43	=43	=43	=43	=43	=43	=43	=43
4D	7 #5|	2.r	2.r	2.r	2.r	8A#XL	4d	4f#	4cc#	2.ff#_
.	.	.	.	.	.	8BJ	.	.	.	.
4r	6	.	.	.	.	4r	4r	4r	8.bL	.
.	.	.	.	.	.	.	.	.	16ff#Jk	.
4AA#X	6 5	.	.	.	.	8c#L	8f#L	16c#LL	4ee	.
.	.	.	.	.	.	.	.	16B	.	.
.	.	.	.	.	.	8c#J	8f#J	16c#	.	.
.	.	.	.	.	.	.	.	16dJJ	.	.
=44	=44	=44	=44	=44	=44	=44	=44	=44	=44	=44
!!pagebreak:original
4BB	.	2.r	2.r	2.r	2.r	8dL	8f#L	16BLL	4dd	4ff#_
.	.	.	.	.	.	.	.	16A#X	.	.
.	.	.	.	.	.	8dJ	8f#J	16B	.	.
.	.	.	.	.	.	.	.	16c#JJ	.	.
4F#	5 #	.	.	.	.	8A#XL	8f#L	16A#LL	8.cc#L	8.ff#L]
.	.	.	.	.	.	.	.	16G#X	.	.
.	6	.	.	.	.	8A#J	8f#J	16A#	.	.
.	.	.	.	.	.	.	.	16BJJ	16eeJk	16ggJk
4FF#	#r7	.	.	.	.	8F#L	8a#XL	16c#LL	4a#X	4ee
.	.	.	.	.	.	.	.	16B	.	.
.	.	.	.	.	.	8F#J	8a#J	16c#	.	.
.	.	.	.	.	.	.	.	16dJJ	.	.
=45	=45	=45	=45	=45	=45	=45	=45	=45	=45	=45
4BB	#7| 5 4	4r	4r	4r	4r	4F#	4f#	16c#LL	4a#X	4ee
.	.	.	.	.	.	.	.	16B	.	.
.	.	.	.	.	.	.	.	16c#	.	.
.	.	.	.	.	.	.	.	16dJJ	.	.
4r	8 2	4r	4r	4r	4r	4r	4r	16BLL	4b	4dd
.	.	.	.	.	.	.	.	16c#	.	.
.	.	.	.	.	.	.	.	16d	.	.
.	.	.	.	.	.	.	.	16f#JJ	.	.
4B	.	4B	4d	4f#	4b	4r	4r	16bLL	4r	4r
.	.	.	.	.	.	.	.	16cc#	.	.
.	.	.	.	.	.	.	.	16dd	.	.
.	.	.	.	.	.	.	.	16ff#JJ	.	.
=46	=46	=46	=46	=46	=46	=46	=46	=46	=46	=46
!!pagebreak:original
4E#X	6 5	4E#X	2c#	4g#X	2cc#	2.r	2.r	16bbLL	2.r	2.r
.	.	.	.	.	.	.	.	16dd	.	.
.	.	.	.	.	.	.	.	16cc#	.	.
.	.	.	.	.	.	.	.	16bJJ	.	.
8.r	.	4F#	.	4a	.	.	.	16aLL	.	.
.	.	.	.	.	.	.	.	16g#X	.	.
.	.	.	.	.	.	.	.	16a	.	.
16F#	.	.	.	.	.	.	.	16cc#JJ	.	.
4En	6 #4| 2	4En	4f#	4a#X	4cc#	.	.	16ff#LL	.	.
.	.	.	.	.	.	.	.	16ee	.	.
.	.	.	.	.	.	.	.	16dd	.	.
.	.	.	.	.	.	.	.	16cc#JJ	.	.
=47	=47	=47	=47	=47	=47	=47	=47	=47	=47	=47
!!pagebreak:original
4D	6	4D	4f#	4b	2ff#	2.r	2.r	16bLL	2.r	2.r
.	.	.	.	.	.	.	.	16a	.	.
.	.	.	.	.	.	.	.	16g	.	.
.	.	.	.	.	.	.	.	16f#JJ	.	.
8.r	.	4d	4B	4g#X	.	.	.	16g#XLL	.	.
.	.	.	.	.	.	.	.	16a	.	.
.	.	.	.	.	.	.	.	16b	.	.
16d	6 #4| 2	.	.	.	.	.	.	16eeJJ	.	.
4c#	#6\	4c#	4c#	4a#X	4ee	.	.	16ggLL	.	.
.	.	.	.	.	.	.	.	16ff#	.	.
.	.	.	.	.	.	.	.	16ee	.	.
.	.	.	.	.	.	.	.	16ddJJ	.	.
=48	=48	=48	=48	=48	=48	=48	=48	=48	=48	=48
4B	#7| 7	4B	4F#	4a#X	4ee	2.r	2.r	16cc#LL	2.r	2.r
.	.	.	.	.	.	.	.	16b	.	.
.	.	.	.	.	.	.	.	16a#X	.	.
.	.	.	.	.	.	.	.	16cc#JJ	.	.
8.r	8 3	2BB	4f#	4b	8ddL	.	.	16ddLL	.	.
.	.	.	.	.	.	.	.	16cc#	.	.
.	.	.	.	.	8cc#J	.	.	16b	.	.
16A#X	.	.	.	.	.	.	.	16anJJ	.	.
4B	#6\ #4| 3	.	4e#X	4g#X	4dd	.	.	16g#XLL	.	.
.	.	.	.	.	.	.	.	16f#	.	.
.	.	.	.	.	.	.	.	16e#X	.	.
.	.	.	.	.	.	.	.	16g#JJ	.	.
=49	=49	=49	=49	=49	=49	=49	=49	=49	=49	=49
[4F#	#	2F#	2f#	2a#X	2cc#	8r	8r	16cc#LL	4r	4r
.	.	.	.	.	.	.	.	16b	.	.
.	.	.	.	.	.	8c#	8a#X	16a#X	.	.
.	.	.	.	.	.	.	.	16g#XJJ	.	.
8.F#L]	.	.	.	.	.	8c#L	8a#L	16f#LL	4r	4r
.	.	.	.	.	.	.	.	16g#	.	.
.	.	.	.	.	.	8c#J	8a#J	16a#	.	.
16EJk	.	.	.	.	.	.	.	16bJJ	.	.
4G	6 4 #2\	4r	4r	4r	4r	8c#L	8a#L	16cc#LL	4e	4cc#
.	.	.	.	.	.	.	.	16dd	.	.
.	.	.	.	.	.	8c#J	8a#J	16ee	.	.
.	.	.	.	.	.	.	.	16cc#JJ	.	.
=50	=50	=50	=50	=50	=50	=50	=50	=50	=50	=50
!!pagebreak:original
4BB	6 4 2	2.r	2.r	2.r	2.r	8r	8r	16gLL	[4e	[4cc#
.	.	.	.	.	.	.	.	16f#	.	.
.	.	.	.	.	.	8e	8c#	16g	.	.
.	.	.	.	.	.	.	.	16cc#JJ	.	.
4AA#X	6 5	.	.	.	.	8c#L	8c#L	16f#LL	8.eL]	8.cc#L]
.	.	.	.	.	.	.	.	16e	.	.
.	.	.	.	.	.	8c#J	8c#J	16f#	.	.
.	.	.	.	.	.	.	.	16cc#JJ	16ddJk	16bbJk
4FF#	7 #	.	.	.	.	8A#XL	8c#L	16eLL	4cc#	4aa#X
.	.	.	.	.	.	.	.	16d	.	.
.	.	.	.	.	.	8A#J	8c#J	16e	.	.
.	.	.	.	.	.	.	.	16cc#JJ	.	.
=51	=51	=51	=51	=51	=51	=51	=51	=51	=51	=51
[4BB	9 4	2.r	2.r	2.r	2.r	8A#XL	8c#L	16f#LL	4e	4cc#
.	.	.	.	.	.	.	.	16e	.	.
.	.	.	.	.	.	16BL	16BL	16d	.	.
.	.	.	.	.	.	16c#JJ	16A#XJJ	16c#JJ	.	.
8.BBL]	8 3	.	.	.	.	4F#	4B	[4d	[2d	[2b
16DJk	.	.	.	.	.	.	.	.	.	.
4F#	6	.	.	.	.	4r	4r	16dLL]	.	.
.	.	.	.	.	.	.	.	16c#	.	.
.	.	.	.	.	.	.	.	16d	.	.
.	.	.	.	.	.	.	.	16eJJ	.	.
=52	=52	=52	=52	=52	=52	=52	=52	=52	=52	=52
4AA	4 6 2	2.r	2.r	2.r	2.r	8r	8r	16f#LL	4d_	4b_
.	.	.	.	.	.	.	.	16e	.	.
.	.	.	.	.	.	8d	8B	16f#	.	.
.	.	.	.	.	.	.	.	16bJJ	.	.
4GG#X	6 5	.	.	.	.	8BL	8BL	16eLL	8.dL]	8.bL]
.	.	.	.	.	.	.	.	16d	.	.
.	.	.	.	.	.	8BJ	8BJ	16e	.	.
.	.	.	.	.	.	.	.	16bJJ	16cc#Jk	16aaJk
4EE	7 #	.	.	.	.	8G#XL	8BL	16dLL	4b	4gg#X
.	.	.	.	.	.	.	.	16c#	.	.
.	.	.	.	.	.	8G#J	8BJ	16d	.	.
.	.	.	.	.	.	.	.	16bJJ	.	.
=53	=53	=53	=53	=53	=53	=53	=53	=53	=53	=53
!!pagebreak:original
[4AA	9 4	2.r	2.r	2.r	2.r	8G#XL	8BL	16eLL	4d	4b
.	.	.	.	.	.	.	.	16d	.	.
.	.	.	.	.	.	16AL	16AL	16c#	.	.
.	.	.	.	.	.	16BJJ	16G#XJJ	16BJJ	.	.
8.AAL]	8 3	.	.	.	.	4E	4A	[4c#	4c#	4a
16C#Jk	.	.	.	.	.	.	.	.	.	.
8.F#L	5	.	.	.	.	4r	4r	16c#LL]	4cc#	4aa
.	.	.	.	.	.	.	.	16cc#	.	.
.	.	.	.	.	.	.	.	16dd	.	.
16EJk	.	.	.	.	.	.	.	16eeJJ	.	.
=54	=54	=54	=54	=54	=54	=54	=54	=54	=54	=54
8.DL	7 5	2.r	2.r	2.r	2.r	8r	8r	16ff#LL	4cc#	4aa
.	.	.	.	.	.	.	.	16ee#X	.	.
.	.	.	.	.	.	8f#	8a	16ff#	.	.
16C#Jk	.	.	.	.	.	.	.	16aaJJ	.	.
4.D	6 #4| 3	.	.	.	.	8g#XL	8bL	16ddLL	8.bL	8.gg#XL
.	.	.	.	.	.	.	.	16cc#	.	.
.	.	.	.	.	.	8g#J	8bJ	16dd	.	.
.	.	.	.	.	.	.	.	16ff#JJ	16ddJk	16bbJk
.	.	.	.	.	.	8bL	8ddL	16bLL	4f#	4dd
.	.	.	.	.	.	.	.	16a#X	.	.
8C#	8	.	.	.	.	8bJ	8ddJ	16b	.	.
.	.	.	.	.	.	.	.	16ddJJ	.	.
=55	=55	=55	=55	=55	=55	=55	=55	=55	=55	=55
8.BBL	#6\ 5	2.r	2.r	2.r	2.r	8r	8r	[4g#X	4f#	4dd
.	.	.	.	.	.	8b	8dd	.	.	.
16AAJk	.	.	.	.	.	.	.	.	.	.
4.BB	#6\ #4| 2	.	.	.	.	8e#XL	8g#XL	16g#LL]	8.e#XL	8.cc#L
.	.	.	.	.	.	.	.	16a	.	.
.	.	.	.	.	.	8e#J	8g#J	16b	.	.
.	.	.	.	.	.	.	.	16ddJJ	16bJk	16gg#XJk
.	.	.	.	.	.	8g#XL	8bL	16ee#XLL	4d	4b
.	.	.	.	.	.	.	.	16ff#	.	.
8GG#X	#6\ 5	.	.	.	.	8g#J	8bJ	16gg#X	.	.
.	.	.	.	.	.	.	.	16bbJJ	.	.
=56	=56	=56	=56	=56	=56	=56	=56	=56	=56	=56
!!pagebreak:original
8.AAL	4 #5| 9	2.r	2.r	2.r	2.r	8r	8r	[4ee#X	4d	4b
.	.	.	.	.	.	8dd	8g#X	.	.	.
16BBJk	.	.	.	.	.	.	.	.	.	.
4C#	6 4	.	.	.	.	8aL	8aL	16ee#LL]	8.c#L	8.aL
.	.	.	.	.	.	.	.	16ff#	.	.
.	.	.	.	.	.	8f#J	8aJ	16g#X	.	.
.	.	.	.	.	.	.	.	16f#JJ	16aJk	16cc#Jk
4CC#	#5| #	.	.	.	.	8g#XL	8cc#L	16e#XLL	8.g#XL	8.bL
.	.	.	.	.	.	.	.	16dd	.	.
.	.	.	.	.	.	8g#J	8cc#J	16cc#	.	.
.	.	.	.	.	.	.	.	16bJJ	16e#XJk	16g#XJk
=57	=57	=57	=57	=57	=57	=57	=57	=57	=57	=57
4FF#	.	4r	4r	4r	4r	8f#L	8cc#L	16aLL	4f#	4a
.	.	.	.	.	.	.	.	16cc#	.	.
.	.	.	.	.	.	8g#XJ	8bJ	16f#	.	.
.	.	.	.	.	.	.	.	16e#XJJ	.	.
4r	.	4r	4r	4r	4r	8aL	8cc#L	16f#LL	4r	4r
.	.	.	.	.	.	.	.	16d	.	.
.	.	.	.	.	.	8bJ	8ee#XJ	16c#	.	.
.	.	.	.	.	.	.	.	16BJJ	.	.
4F#	5	4F#	4c#	4an	4ff#	4cc#	4ff#	16ALL	4r	4r
.	.	.	.	.	.	.	.	16B	.	.
.	.	.	.	.	.	.	.	16c#	.	.
.	.	.	.	.	.	.	.	16f#JJ	.	.
=58	=58	=58	=58	=58	=58	=58	=58	=58	=58	=58
4G#X	6	4G#X	2B	4b	4ee	2.r	2.r	16bLL	2.r	2.r
.	.	.	.	.	.	.	.	16a	.	.
.	.	.	.	.	.	.	.	16g#X	.	.
.	.	.	.	.	.	.	.	16aJJ	.	.
8.r	5	4F#	.	4a	8ddL	.	.	16bLL	.	.
.	.	.	.	.	.	.	.	16cc#	.	.
.	.	.	.	.	8cc#J	.	.	16dd	.	.
16F#	6	.	.	.	.	.	.	16ff#JJ	.	.
4E	7 #	4E	4e	4g#X	4dd	.	.	16bbLL	.	.
.	.	.	.	.	.	.	.	16dd	.	.
.	.	.	.	.	.	.	.	16cc#	.	.
.	.	.	.	.	.	.	.	16bJJ	.	.
=59	=59	=59	=59	=59	=59	=59	=59	=59	=59	=59
!!pagebreak:original
4A	.	2A	4e	4a	4cc#	2.r	2.r	16aLL	2.r	2.r
.	.	.	.	.	.	.	.	16b	.	.
.	.	.	.	.	.	.	.	16cc#	.	.
.	.	.	.	.	.	.	.	16eeJJ	.	.
8.r	.	.	4f#	4b	4dd	.	.	16ddLL	.	.
.	.	.	.	.	.	.	.	16cc#	.	.
.	.	.	.	.	.	.	.	16b	.	.
16AA	6 4 2	.	.	.	.	.	.	16aJJ	.	.
4A#X	nr7 5	4A#X	4g	4cc#	4ee	.	.	16gLL	.	.
.	.	.	.	.	.	.	.	16f#	.	.
.	.	.	.	.	.	.	.	16g	.	.
.	.	.	.	.	.	.	.	16cc#JJ	.	.
=60	=60	=60	=60	=60	=60	=60	=60	=60	=60	=60
4B	.	4B	4f#	4b	4dd	2.r	2.r	16ddLL	2.r	2.r
.	.	.	.	.	.	.	.	16b	.	.
.	.	.	.	.	.	.	.	16a#X	.	.
.	.	.	.	.	.	.	.	16bJJ	.	.
8.r	.	2F#	8eL	8a#XL	8cc#L	.	.	16cc#LL	.	.
.	.	.	.	.	.	.	.	16dd	.	.
.	.	.	8dJ	8g#XJ	8bJ	.	.	16ee	.	.
16F#	6 4 #2|	.	.	.	.	.	.	16ff#JJ	.	.
4FF#	#	.	4e	4a#	4cc#	.	.	16ggLL	.	.
.	.	.	.	.	.	.	.	16ff#	.	.
.	.	.	.	.	.	.	.	16ee	.	.
.	.	.	.	.	.	.	.	16aa#XJJ	.	.
=61	=61	=61	=61	=61	=61	=61	=61	=61	=61	=61
4GG	7	2G	2d	2b	2b	4r	4r	16ddLL	4r	4r
.	.	.	.	.	.	.	.	16ee	.	.
.	.	.	.	.	.	.	.	16ff#	.	.
.	.	.	.	.	.	.	.	16bbJJ	.	.
8.r	6	.	.	.	.	4r	4r	16bLL	4r	4r
.	.	.	.	.	.	.	.	16dd#X	.	.
.	.	.	.	.	.	.	.	16ee	.	.
16G	.	.	.	.	.	.	.	16ff#JJ	.	.
8.F#L	7 4 2	4r	4r	4r	4r	8BL	8eL	16ggLL	4e	4b
.	.	.	.	.	.	.	.	16ff#	.	.
.	.	.	.	.	.	8BJ	8eJ	16gg	.	.
16EJk	.	.	.	.	.	.	.	16aaJJ	.	.
=62	=62	=62	=62	=62	=62	=62	=62	=62	=62	=62
!!pagebreak:original
4B	5 4	2.r	2.r	2.r	2.r	4B	4f#	4ff#	4e	[2.b
4r	5 #	.	.	.	.	4r	4r	4r	8.d#XL	.
.	.	.	.	.	.	.	.	.	16ccnJk	.
4A	6 #4| 2	.	.	.	.	8BL	16d#XLL	16ff#LL	4b	.
.	.	.	.	.	.	.	16c#	16ee	.	.
.	.	.	.	.	.	8BJ	16d#	16ff#	.	.
.	.	.	.	.	.	.	16eJJ	16ggJJ	.	.
=63	=63	=63	=63	=63	=63	=63	=63	=63	=63	=63
4G	7 #5|	2.r	2.r	2.r	2.r	4B	8f#L	4b	4f#	2.b]
.	.	.	.	.	.	.	8gJ	.	.	.
4r	6	.	.	.	.	4r	4r	4r	8.eL	.
.	.	.	.	.	.	.	.	.	16bJk	.
4D#X	6 5	.	.	.	.	8f#L	8BL	16f#LL	4a	.
.	.	.	.	.	.	.	.	16e	.	.
.	.	.	.	.	.	8f#J	8BJ	16f#	.	.
.	.	.	.	.	.	.	.	16gJJ	.	.
=64	=64	=64	=64	=64	=64	=64	=64	=64	=64	=64
4E	.	2.r	2.r	2.r	2.r	8gL	8BL	16eLL	4g	[4b
.	.	.	.	.	.	.	.	16d#X	.	.
.	.	.	.	.	.	8gJ	8BJ	16e	.	.
.	.	.	.	.	.	.	.	16f#JJ	.	.
4B	8 #	.	.	.	.	8d#XL	8BL	16d#LL	8.f#L	8.bL]
.	.	.	.	.	.	.	.	16c#	.	.
.	.	.	.	.	.	8d#J	8BJ	16d#	.	.
.	.	.	.	.	.	.	.	16eJJ	16aJk	16ccnJk
4BB	7	.	.	.	.	8BL	8d#XL	16f#LL	4d#X	4a
.	.	.	.	.	.	.	.	16e	.	.
.	.	.	.	.	.	8BJ	8d#J	16f#	.	.
.	.	.	.	.	.	.	.	16gJJ	.	.
=65	=65	=65	=65	=65	=65	=65	=65	=65	=65	=65
[4E	4 9 #7\	2.r	2.r	2.r	2.r	8BL	8BL	16f#LL	4d#X	4a
.	.	.	.	.	.	.	.	16e	.	.
.	.	.	.	.	.	8BJ	8BJ	16f#	.	.
.	.	.	.	.	.	.	.	16gJJ	.	.
8.EL]	8 3 5	.	.	.	.	4G	4B	[4e	[2e	[2g
16GJk	.	.	.	.	.	.	.	.	.	.
4B	6 4 3	.	.	.	.	4r	4r	16eLL]	.	.
.	.	.	.	.	.	.	.	16f#	.	.
.	.	.	.	.	.	.	.	16g	.	.
.	.	.	.	.	.	.	.	16aJJ	.	.
=66	=66	=66	=66	=66	=66	=66	=66	=66	=66	=66
!!pagebreak:original
4D	6 4 2	2.r	2.r	2.r	2.r	8r	8r	16bLL	4e_	4g_
.	.	.	.	.	.	.	.	16a	.	.
.	.	.	.	.	.	8g	8e	16b	.	.
.	.	.	.	.	.	.	.	16eeJJ	.	.
4C#	6 5	.	.	.	.	8eL	8eL	16aLL	8.eL]	8.gL]
.	.	.	.	.	.	.	.	16g	.	.
.	.	.	.	.	.	8eJ	8eJ	16a	.	.
.	.	.	.	.	.	.	.	16eeJJ	16ddJk	16ff#Jk
4AA	7	.	.	.	.	8c#L	8eL	16gLL	4cc#	4ee
.	.	.	.	.	.	.	.	16f#	.	.
.	.	.	.	.	.	8c#J	8eJ	16g	.	.
.	.	.	.	.	.	.	.	16eeJJ	.	.
=67	=67	=67	=67	=67	=67	=67	=67	=67	=67	=67
4D	9 4	4r	4r	4r	4r	8c#L	8eL	16aLL	4e	4g
.	.	.	.	.	.	.	.	16g	.	.
.	.	.	.	.	.	16dL	16dL	16f#	.	.
.	.	.	.	.	.	16eJJ	16c#JJ	16eJJ	.	.
4r	8 3	4r	4r	4r	4r	4A	4d	16f#LL	4d	4f#
.	.	.	.	.	.	.	.	16e	.	.
.	.	.	.	.	.	.	.	16f#	.	.
.	.	.	.	.	.	.	.	16aJJ	.	.
4BB	#6\	4B	4B	4g#X	4dd	4r	4r	16dLL	4r	4r
.	.	.	.	.	.	.	.	16g#X	.	.
.	.	.	.	.	.	.	.	16a	.	.
.	.	.	.	.	.	.	.	16bJJ	.	.
=68	=68	=68	=68	=68	=68	=68	=68	=68	=68	=68
4AA	.	4A	4e	2a	4cc#	2.r	2.r	16cc#LL	2.r	2.r
.	.	.	.	.	.	.	.	16a	.	.
.	.	.	.	.	.	.	.	16g#X	.	.
.	.	.	.	.	.	.	.	16aJJ	.	.
8.r	.	4D#X	4f#	.	2b	.	.	16f#LL	.	.
.	.	.	.	.	.	.	.	16a	.	.
.	.	.	.	.	.	.	.	16b	.	.
16D#X	6 5	.	.	.	.	.	.	16cc#JJ	.	.
4E#X	6 5	4E#X	4c#	4g#X	.	.	.	16bLL	.	.
.	.	.	.	.	.	.	.	16g#	.	.
.	.	.	.	.	.	.	.	16f#	.	.
.	.	.	.	.	.	.	.	16g#JJ	.	.
=69	=69	=69	=69	=69	=69	=69	=69	=69	=69	=69
!!pagebreak:original
4F#	.	4F#	4c#	4f#	4.a	2.r	2.r	16aLL	2.r	2.r
.	.	.	.	.	.	.	.	16A	.	.
.	.	.	.	.	.	.	.	16B	.	.
.	.	.	.	.	.	.	.	16c#JJ	.	.
8.r	.	4G#X	4B	4e#X	.	.	.	16dLL	.	.
.	.	.	.	.	.	.	.	16c#	.	.
.	.	.	.	.	8g#X	.	.	16B	.	.
16G#X	#6\	.	.	.	.	.	.	16dJJ	.	.
4A	6	4A	4c#	[4f#	8f#L	.	.	16c#LL	.	.
.	.	.	.	.	.	.	.	16f#	.	.
.	.	.	.	.	8g#J	.	.	16e#X	.	.
.	.	.	.	.	.	.	.	16f#JJ	.	.
=70	=70	=70	=70	=70	=70	=70	=70	=70	=70	=70
4D	5	4D	4f#	8f#L]	8aL	2.r	2.r	16ALL	2.r	2.r
.	.	.	.	.	.	.	.	16a	.	.
.	.	.	.	8g#XJ	8bJ	.	.	16g#X	.	.
.	.	.	.	.	.	.	.	16f#JJ	.	.
8.r	.	4BB	4d	4.g#	4.b	.	.	16eLL	.	.
.	.	.	.	.	.	.	.	16d	.	.
.	.	.	.	.	.	.	.	16c#	.	.
16BB	#6\	.	.	.	.	.	.	16dJJ	.	.
4E	7 #	4E	4e	.	.	.	.	16bLL	.	.
.	.	.	.	.	.	.	.	16f#	.	.
.	.	.	.	8a	16aLL	.	.	16e	.	.
.	.	.	.	.	16bJJ	.	.	16dJJ	.	.
=71	=71	=71	=71	=71	=71	=71	=71	=71	=71	=71
[4AA	8	2AA	2e	2a	2cc#	8r	8r	16c#LL	4r	4r
.	.	.	.	.	.	.	.	16B	.	.
.	.	.	.	.	.	8c#	8e	16c#	.	.
.	.	.	.	.	.	.	.	16eJJ	.	.
8.AAL]	7	.	.	.	.	8c#L	8eL	[4g	4r	4r
.	.	.	.	.	.	8c#J	8eJ	.	.	.
16C#Jk	.	.	.	.	.	.	.	.	.	.
4E	6	4r	4r	4r	4r	8c#L	8eL	16gLL]	4e	4g
.	.	.	.	.	.	.	.	16f#	.	.
.	.	.	.	.	.	8c#J	8eJ	16g	.	.
.	.	.	.	.	.	.	.	16aJJ	.	.
=72	=72	=72	=72	=72	=72	=72	=72	=72	=72	=72
!!pagebreak:original
4D	6 4 2	2.r	2.r	2.r	2.r	8BL	8eL	16bLL	[4e	[4g
.	.	.	.	.	.	.	.	16a	.	.
.	.	.	.	.	.	8BJ	8eJ	16b	.	.
.	.	.	.	.	.	.	.	16eeJJ	.	.
4C#	6 5	.	.	.	.	8AL	8eL	16aLL	8.eL]	8.gL]
.	.	.	.	.	.	.	.	16g	.	.
.	.	.	.	.	.	8AJ	8eJ	16a	.	.
.	.	.	.	.	.	.	.	16eeJJ	16ddJk	16ff#Jk
4AA	7	.	.	.	.	8c#L	8eL	16gLL	4cc#	4ee
.	.	.	.	.	.	.	.	16f#	.	.
.	.	.	.	.	.	8c#J	8eJ	16g	.	.
.	.	.	.	.	.	.	.	16eeJJ	.	.
=73	=73	=73	=73	=73	=73	=73	=73	=73	=73	=73
[4D	9 4	2.r	2.r	2.r	2.r	8c#L	8eL	16aLL	4e	4g
.	.	.	.	.	.	.	.	16g	.	.
.	.	.	.	.	.	16dL	16dL	16f#	.	.
.	.	.	.	.	.	16eJJ	16c#JJ	16eJJ	.	.
8.DL]	8 3	.	.	.	.	4A	4d	[4f#	4d	4f#
16F#Jk	.	.	.	.	.	.	.	.	.	.
4G	5 3	.	.	.	.	4r	4r	16f#LL]	4d	4b
.	.	.	.	.	.	.	.	16a#X	.	.
.	6 4	.	.	.	.	.	.	16b	.	.
.	.	.	.	.	.	.	.	16cc#JJ	.	.
=74	=74	=74	=74	=74	=74	=74	=74	=74	=74	=74
4F#	6 4	2.r	2.r	2.r	2.r	8r	8r	16ddLL	[4d	[4b
.	.	.	.	.	.	.	.	16cc#	.	.
.	.	.	.	.	.	8d	8g	16dd	.	.
.	.	.	.	.	.	.	.	16ggJJ	.	.
4E	7 5	.	.	.	.	8eL	8gL	16bLL	8.dL]	8.bL]
.	.	.	.	.	.	.	.	16a#X	.	.
.	6	.	.	.	.	8eJ	8gJ	16b	.	.
.	.	.	.	.	.	.	.	16ggJJ	16cc#Jk	16aaJk
4C#	7 5	.	.	.	.	8bL	8gL	16eeLL	4b	4gg
.	.	.	.	.	.	.	.	16dd	.	.
.	.	.	.	.	.	8bJ	8gJ	16ee	.	.
.	.	.	.	.	.	.	.	16ggJJ	.	.
=75	=75	=75	=75	=75	=75	=75	=75	=75	=75	=75
!!pagebreak:original
4F#	6 4	2r	4r	2r	4r	8bL	8dL	16ff#LL	4d	4b
.	.	.	.	.	.	.	.	16dd	.	.
.	.	.	.	.	.	8bJ	8dJ	16cc#	.	.
.	.	.	.	.	.	.	.	16ddJJ	.	.
4FF#	5 #	.	4r	.	4r	8f#L	8f#L	16eeLL	4c#	4a#X
.	.	.	.	.	.	.	.	16dd	.	.
.	.	.	.	.	.	8f#J	8f#J	16cc#	.	.
.	.	.	.	.	.	.	.	16bJJ	.	.
4F#	.	4F#	4f#	4a#X	4cc#	8c#L	8f#L	16a#XLL	4ee	4ff#
.	.	.	.	.	.	.	.	16f#	.	.
.	.	.	.	.	.	8c#J	8f#J	16e	.	.
.	.	.	.	.	.	.	.	16f#JJ	.	.
=76	=76	=76	=76	=76	=76	=76	=76	=76	=76	=76
4B	.	4B	4f#	4b	4dd	8BL	8f#L	16ddLL	4dd	4ff#
.	.	.	.	.	.	.	.	16b	.	.
.	.	.	.	.	.	8dJ	8f#J	16a#X	.	.
.	.	.	.	.	.	.	.	16bJJ	.	.
8.r	.	4G	4g	4a#X	4.ee	8gL	8gL	16eeLL	8.cc#L	8.eeL
.	.	.	.	.	.	.	.	16b	.	.
.	.	.	.	.	.	8gJ	8gJ	16a#	.	.
16C#	#6\	.	.	.	.	.	.	16bJJ	16eeJk	16ggJk
4E	7 5	4E	4d	4b	.	8gL	8bL	16ggLL	4d	4b
.	.	.	.	.	.	.	.	16ee	.	.
.	.	.	.	.	16ff#LL	8gJ	8bJ	16dd	.	.
.	.	.	.	.	16ggJJ	.	.	16eeJJ	.	.
=77	=77	=77	=77	=77	=77	=77	=77	=77	=77	=77
4FF#	9 6 4	4E	4d	4b	4gg	8dL	8bL	16ff#LL	4d	4b
.	.	.	.	.	.	.	.	16dd	.	.
.	.	.	.	.	.	8dJ	8bJ	16cc#	.	.
.	.	.	.	.	.	.	.	16ddJJ	.	.
8.r	8 5 #	4F#	4c#	4a#X	8.ff#L	8c#L	8a#XL	16ccc#LL	8.c#L	8.a#XL
.	.	.	.	.	.	.	.	16ee	.	.
.	.	.	.	.	.	8c#J	8a#J	16dd	.	.
16A#X	6 5	.	.	.	16eeJk	.	.	16cc#JJ	16a#XJk	16cc#Jk
4B	.	4B	4B	4f#	8ddL	8BL	8f#L	16ddLL	4d	4f#
.	.	.	.	.	.	.	.	16b	.	.
.	.	.	.	.	8cc#J	8BJ	8f#J	16a#X	.	.
.	.	.	.	.	.	.	.	16bJJ	.	.
=78	=78	=78	=78	=78	=78	=78	=78	=78	=78	=78
!!pagebreak:original
4G	5	4G	2B	4.g	8bL	8BL	8gL	16cc#LL	4d	4f#
.	.	.	.	.	.	.	.	16dd	.	.
.	.	.	.	.	8eeJ	8BJ	8gJ	16ee	.	.
.	.	.	.	.	.	.	.	16ff#JJ	.	.
8.r	.	4E	.	.	4.cc#	8BL	8gL	16ggLL	8.c#L	8.eL
.	.	.	.	.	.	.	.	16bb	.	.
.	.	.	.	16f#LL	.	8BJ	8f#J	16aa#X	.	.
16E	6 5	.	.	16eJJ	.	.	.	16bbJJ	16f#Jk	16ddJk
4F#	#	4F#	4A#X	4f#	.	8A#XL	8f#L	16cc#LL	8.eL	8.cc#L
.	.	.	.	.	.	.	.	16gg	.	.
.	.	.	.	.	8b	8A#J	8f#J	16ff#	.	.
.	.	.	.	.	.	.	.	16ggJJ	16c#Jk	16a#XJk
=79	=79	=79	=79	=79	=79	=79	=79	=79	=79	=79
[4BB	8	2.BB	2.F#	2.f#	[2.b	4d	4f#	16ddLL	4d	4b
.	.	.	.	.	.	.	.	16cc#	.	.
.	.	.	.	.	.	.	.	16b	.	.
.	.	.	.	.	.	.	.	16cc#JJ	.	.
8.BBL]	7	.	.	.	.	4r	4r	16dd#XLL	[2f#	[2a
.	.	.	.	.	.	.	.	16a	.	.
.	.	.	.	.	.	.	.	16b	.	.
16F#Jk	.	.	.	.	.	.	.	16ccnJJ	.	.
4A	6 n	.	.	.	.	4r	4r	16f#LL	.	.
.	.	.	.	.	.	.	.	16g	.	.
.	.	.	.	.	.	.	.	16a	.	.
.	.	.	.	.	.	.	.	16bJJ	.	.
=80	=80	=80	=80	=80	=80	=80	=80	=80	=80	=80
4E	nr6 4 2	2.r	2.r	2.r	2.b_	8r	8r	16ccnLL	4f#_	4a_
.	.	.	.	.	.	.	.	16b	.	.
.	.	.	.	.	.	8a	8f#	16cc	.	.
.	.	.	.	.	.	.	.	16ff#JJ	.	.
4D#X	6 5	.	.	.	.	8f#L	8f#L	16bLL	8.f#L]	8.aL]
.	.	.	.	.	.	.	.	16a	.	.
.	.	.	.	.	.	8f#J	8f#J	16b	.	.
.	.	.	.	.	.	.	.	16ff#JJ	16eeJk	16ggJk
4BB	7 #	.	.	.	.	8d#XL	8f#L	16aLL	4dd#X	4ff#
.	.	.	.	.	.	.	.	16g	.	.
.	.	.	.	.	.	8d#J	8f#J	16a	.	.
.	.	.	.	.	.	.	.	16ff#JJ	.	.
=81	=81	=81	=81	=81	=81	=81	=81	=81	=81	=81
!!pagebreak:original
[4E	9 4	2.r	2.r	2.r	2.b]	8d#XL	8f#L	16bLL	4f#	4a
.	.	.	.	.	.	.	.	16a	.	.
.	.	.	.	.	.	16eL	16eL	16g	.	.
.	.	.	.	.	.	16f#JJ	16d#XJJ	16f#JJ	.	.
8.EL]	8 3	.	.	.	.	4B	4e	[4g	[2e	[2g
16GJk	.	.	.	.	.	.	.	.	.	.
4B	6 4 3	.	.	.	.	4r	4r	16gLL]	.	.
.	.	.	.	.	.	.	.	16f#	.	.
.	.	.	.	.	.	.	.	16g	.	.
.	.	.	.	.	.	.	.	16aJJ	.	.
=82	=82	=82	=82	=82	=82	=82	=82	=82	=82	=82
4D	6 4 2	2.r	2.r	2.r	2.r	8r	8r	16bLL	4e_	4g_
.	.	.	.	.	.	.	.	16a	.	.
.	.	.	.	.	.	8g	8e	16b	.	.
.	.	.	.	.	.	.	.	16eeJJ	.	.
4C#	6 5	.	.	.	.	8eL	8eL	16aLL	8.eL]	8.gL]
.	.	.	.	.	.	.	.	16g	.	.
.	.	.	.	.	.	8eJ	8eJ	16a	.	.
.	.	.	.	.	.	.	.	16eeJJ	16ddJk	16ff#Jk
4BB	6 4	.	.	.	.	8gL	8eL	16gLL	4cc#	4ee
.	.	.	.	.	.	.	.	16f#	.	.
.	.	.	.	.	.	8gJ	8eJ	16g	.	.
.	.	.	.	.	.	.	.	16eeJJ	.	.
=83	=83	=83	=83	=83	=83	=83	=83	=83	=83	=83
4.AA#X	7 5	2.r	2.r	2.r	2.r	2c#	2e	16gLL	2e	4g
.	.	.	.	.	.	.	.	16f#	.	.
.	.	.	.	.	.	.	.	16e	.	.
.	.	.	.	.	.	.	.	16gJJ	.	.
.	.	.	.	.	.	.	.	16A#XLL	.	4f#
.	.	.	.	.	.	.	.	16g	.	.
8F#	7 #	.	.	.	.	.	.	16f#	.	.
.	.	.	.	.	.	.	.	16eJJ	.	.
8.BL	.	.	.	.	.	4r	4r	16dLL	4dd	4ff#
.	.	.	.	.	.	.	.	16f#	.	.
.	.	.	.	.	.	.	.	16g#X	.	.
16AJk	.	.	.	.	.	.	.	16a#XJJ	.	.
=84	=84	=84	=84	=84	=84	=84	=84	=84	=84	=84
!!pagebreak:original
8.GL	7 5	2.r	2.r	2.r	2.r	8r	8r	16bLL	4dd	4ff#
.	.	.	.	.	.	.	.	16a#X	.	.
.	.	.	.	.	.	8B	8d	16b	.	.
16F#Jk	.	.	.	.	.	.	.	16ddJJ	.	.
4.G	6 4 3	.	.	.	.	8c#L	8eL	16gLL	8.cc#L	8.eeL
.	.	.	.	.	.	.	.	16f#	.	.
.	.	.	.	.	.	8c#J	8eJ	16g	.	.
.	.	.	.	.	.	.	.	16bJJ	16eeJk	16ggJk
.	.	.	.	.	.	8eL	8gL	16eLL	4g	4b
.	.	.	.	.	.	.	.	16d	.	.
8F#	6 4	.	.	.	.	8eJ	8gJ	16e	.	.
.	.	.	.	.	.	.	.	16gJJ	.	.
=85	=85	=85	=85	=85	=85	=85	=85	=85	=85	=85
8.EL	6 5	2.r	2.r	2.r	2.r	8r	8r	[4c#	4g	4b
.	.	.	.	.	.	8e	8g	.	.	.
16DJk	.	.	.	.	.	.	.	.	.	.
4.E	6 #4| 2	.	.	.	.	8A#XL	8c#L	16c#LL]	8.f#L	8.a#XL
.	.	.	.	.	.	.	.	16d	.	.
.	.	.	.	.	.	8A#J	8c#J	16e	.	.
.	.	.	.	.	.	.	.	16gJJ	16cc#Jk	16eeJk
.	.	.	.	.	.	8c#L	8eL	16a#XLL	4e	4g
.	.	.	.	.	.	.	.	16b	.	.
8C#	#6\ nr5	.	.	.	.	8c#J	8eJ	16cc#	.	.
.	.	.	.	.	.	.	.	16eeJJ	.	.
=86	=86	=86	=86	=86	=86	=86	=86	=86	=86	=86
8.DL	#5| 4 9	2.r	2.r	2.r	2.r	8r	8r	[4aa#X	4e	4g
.	.	.	.	.	.	8g	8c#	.	.	.
16EJk	.	.	.	.	.	.	.	.	.	.
4F#	6 4	.	.	.	.	8dL	8dL	16aa#LL]	8.dL	8.f#L
.	.	.	.	.	.	.	.	16bb	.	.
.	.	.	.	.	.	8BJ	8dJ	16ee	.	.
.	.	.	.	.	.	.	.	16ddJJ	16f#Jk	16ddJk
4FF#	5 #	.	.	.	.	8c#L	8f#L	16eeLL	8.eL	8.cc#L
.	.	.	.	.	.	.	.	16gg	.	.
.	.	.	.	.	.	8c#J	8f#J	16ff#	.	.
.	.	.	.	.	.	.	.	16a#XJJ	16c#Jk	16a#XJk
=87	=87	=87	=87	=87	=87	=87	=87	=87	=87	=87
2BB;	.	4r	4r	4r	4r	2d;	2f#;	2b;	2d;	2b;
.	.	4r;	4r;	4r;	4r;	.	.	.	.	.
=||	=||	=||	=||	=||	=||	=||	=||	=||	=||	=||
*-	*-	*-	*-	*-	*-	*-	*-	*-	*-	*-
!!!system-decoration: s1,s2,s3,s4,s5,s6,s7,s8,s9,s10
